// ============================================================================
// CLAIDE - Cross-platform Text Editor
// ============================================================================
// File:        FolderIcon.xpm
// Project:     CLAIDE
// Copyright:   © 2026 AJC-Software Ltd
// ============================================================================

#ifndef FOLDER_ICON_XPM
#define FOLDER_ICON_XPM

static const char* folder_icon_xpm[] = {
"16 16 5 1",
" 	c None",
".	c #D4A017",
"+	c #F5C842",
"@	c #C49000",
"#	c #FFFFFF",
"                ",
"  ............  ",
"  .++++++++++.  ",
"  .++++++++++.  ",
"  .++++++++++.  ",
"  .++++++++++.  ",
"  .++++++++++.  ",
"  .++++++++++.  ",
"  .++++++++++.  ",
"  .++++++++++.  ",
"  .++++++++++.  ",
"  .++++++++++.  ",
"  .++++++++++.  ",
"  ............  ",
"                ",
"                "};

#endif
